!!!COM: Beethoven, Ludwig van
!!!CDT: 1770///-1827///
!!!OTL: Piano Sonata no. 26 in E-flat major
!!!OTP: les adieux
!!!ODE: &agrave; l'Archiduc Rodolphe
!!!ODT: 1809///-1810///
!!!OPS: 81a
!!!OMV: 1
!!!OMD: Les Adieux: Adagio---Allegro
**kern	**kern	**dynam
*staff2	*staff1	*staff1/2
*>[I,A,A1,A,A2,B]	*>[I,A,A1,A,A2,B]	*>[I,A,A1,A,A2,B]
*>norep[I,A,A2,B]	*>norep[I,A,A2,B]	*>norep[I,A,A2,B]
*>I	*>I	*>I
*Ipiano	*Ipiano	*Ipiano
*clefF4	*clefG2	*clefG2
*k[b-e-a-]	*k[b-e-a-]	*k[b-e-a-]
*E-:	*E-:	*E-:
*M2/4	*M2/4	*M2/4
*MM60	*MM60	*MM60
=1-	=1-	=1-
2r	(4e-/ 4g/	p
.	4B-/ 4f/	.
=2	=2	=2
4.CC/ 4.C/	4.G/) 4.e-/	.
(8C/ 8E-/	(16.e-/LL	.
.	32a-/JJk)	.
=3	=3	=3
8BB-/) 8En/L	8g\L	.
(8BB-/ 8E/	16.g\L	.
.	32dd-\JJk	.
8AAn/) 8F/	8cc\L	.
8AA-/ 8F#/J	16.cc\L	.
.	32ddn\JJk	.
=4	=4	=4
*^	*^	*
(8G/L	4.GG\	(8.ee-/L	8e-\L	.
8An/	.	.	8e-\ 8f#\	.
.	.	16cc/k	.	.
8Bn/J)	.	8bn/J	8d\ 8g\J	.
8r	8r	(16gg\LL)	8r	.
.	.	16eee-\JJ)	.	.
*v	*v	*	*	*
*clefG2	*	*	*
=5	=5	=5	=5
*^	*	*	*
(8g/L	4.G\	(8.eee-/L	8ee-\L	.
8an/	.	.	8ee-\ 8ff#\	.
.	.	16ccc/Jk	.	.
8bn/	.	8bbn/L	8dd\ 8gg\)	.
8b-/J)	8g\	8bb-/J	8dd\ 8gg\J	.
=6	=6	=6	=6	=6
(4b-/	8f\ 8a-\L	[4bb-/	8dd\L	f
.	8e-\ 8g\	.	8ee-\J	.
8b-/	8d\ 8f\	24bb-/LL]	24ff\	.
.	.	24b-/	24r	.
.	.	24cc/JJ	24r	.
8r	8B-\) 8d\J	24an/LL	8r	.
.	.	24b-/	.	.
.	.	24a-/JJ	.	.
*v	*v	*	*	*
*clefF4	*	*	*
*	*v	*v	*
=7	=7	=7
4r	(4B-/ 4d-/ 4en/ 4g/	p
4BBB-/ 4BB-/	4A-/ 4dn/ 4f/	.
=8	=8	=8
*	*^	*
4.CC-/ 4.C-/	4.r	4.G-/) 4.e-/	.
8C-\ 8G-\	16.g-/LL	8e-\	.
.	32cc-/JJk	.	.
=9	=9	=9	=9
8D-\ 8G-\L	8cc-/L	8f-\L	.
8D-\ 8G-\J	16.b-/L	8f-\	.
.	32ff-/JJk	.	.
8C-\ 8G-\L	8ee-/L	8e-\J	.
8BB-\ [8G-\J	16.ee-/L	8r	.
.	32ffn/JJk	.	.
=10	=10	=10	=10
*^	*	*	*
8G-/L]	4AAn\	8.gg-/L	8ccn\L	.
8F/	.	.	8cc\	.
.	.	16ee-/k	.	.
8F/	8BB-\L	8dd/J	8b-\	.
[8F-/J	8AA-\J	16.dd-/LL	[8b-\J	.
.	.	32ee-/JJk	.	.
=11	=11	=11	=11	=11
8F-/L]	4GG\	8.ff-/L	8b-\L]	.
8E-/	.	.	8b-\	.
.	.	32ee-/LL	.	.
.	.	32dd-/JJJ	.	.
8E-/	8AA-\L	8cc-/L	8a-\	.
8G-/J	8GG-\ 8BB-\J	8b-/ 8ee-/J	8e-\J	.
*v	*v	*	*	*
*	*v	*v	*
=12	=12	=12
8FF/ 8BB-/ 8F/	8dn/ 8a-/ 8b-/ 8ddn/	.
8r	8r	.
16r	16r	.
(16FF/ 16BB-/ 16F/LL	(16d/ 16a-/ 16b-/ 16dd/LL	.
16EE-/) 16BB-/ 16E-/	16e-/) 16g-/ 16b-/ 16ee-/	.
16EE-/ 16BB-/ 16E-/JJ	16e-/ 16g-/ 16b-/ 16ee-/JJ	.
=13	=13	=13
8DD/ 8BB-/ 8D/	8f\ 8b-\ 8ff\	.
8r	8r	.
16r	16r	.
*clefG2	*	*
(16f/ 16a-/LL	16b-\ (16dd\LL	.
16e-/) 16g-/	16b-\ 16ee-\)	.
16e-/ 16g-/JJ	16b-\ 16ee-\JJ	.
=14	=14	=14
8d/ 8f/	8b-\ 8ff\	.
8r	8r	.
16r	16r	.
(16d/ 16f/LL	16b-\ (16ff\LL	.
16d-/ 16e-/	16b-\ 16ggn\	.
16c-/) 16e-/JJ	16a-\ 16aa-\JJ)	.
=15	=15	=15
8c-/ 8e-/	8a-\ 8aa-\	.
8r	8r	.
16r	16r	.
(16dn/ 16f/LL	16b-\ (16ff\LL	.
16d-/ 16e-/	16b-\ 16gg\	.
16cn/) 16e-/JJ	16a-\ 16aa-\JJ)	.
=16	=16	=16
8r	8r	.
8c/ 8e-/	8a-\ 8aa-\	pp
8r	8r	.
8c/ 8e-/	8a-\ 8aa-\	.
*clefF4	*	*
=17!|:	=17!|:	=17!|:
*>A	*>A	*>A
*M2/2	*M2/2	*M2/2
*MM188	*MM188	*MM188
*	*^	*
2.c\ 2.e-\	2.a-\ 2.aa-\	2.r	f
8Bn\ (8d\L	(8dd/L	4g\	.
8B-\ 8d-\J)	8gg/J)	.	.
=18	=18	=18	=18
4B-\ 4d-\	4gg/	4g\	.
8An\ (8c\L	(8cc/L	4f\	.
8A-\ 8c-\J)	8ff/J)	.	.
4A-\ 4c-\	4ff/	4f\	.
8G\ (8B-\L	8b-/L	4e-\	.
8F#\ 8An\J)	8ee-/J	.	.
=19	=19	=19	=19
2.Fn\ 2.A-\	(2ee-/	2e-\ 2a-\ 2b-\	.
.	4a-/ 4b-/ 4dd/	4d\	p
4E-\ 4G\	4b-/ 4ee-/	4e-\	.
=20	=20	=20	=20
4D\ 4F\	4ff/	4f\ 4b-\	.
4C\ 4E-\	4gg/	4g\ 4b-\	.
4BB-\ 4D\	4aa-/	4a-\ 4b-\	.
4BB-\ 4D\ 4F\	4bb-/)	4b-\	.
*	*v	*v	*
=21	=21	=21
8EE-\L	4g'\ 4b-'\ 4gg'\	.
8BB-\	.	.
8G\	4r	.
8BB-\J	.	.
8EE-\L	4b-'\ 4bb-'\	.
8BB-\	.	.
8G\	4r	.
8BB-\J	.	.
=22	=22	=22
*	*8va	*
8FF\L	2.bb-\ 2.bbb-\	.
*	*X8va	*
8BB-\	.	.
8A-\	.	.
8BB-\J	.	.
8FF\L	.	.
8BB-\	.	.
8A-\	[4b-\ [4bb-\	.
8BB-\J	.	.
=23	=23	=23
8GG\L	2.b-\] (2.bb-\]	.
8BB-\	.	.
8B-\	.	.
8BB-\J	.	.
8GG\L	.	.
8BB-\	.	.
8B-\	4g\ 4gg\	.
8BB-\J	.	.
=24	=24	=24
8AA-\L	4f\ 4ff\	.
8BB-\	.	.
8A-\	4d\ 4dd\	.
8BB-\J	.	.
8BBB-\L	4c-/ 4cc-/	.
8BB-\	.	.
8F\	4B-/ 4b-/)	.
8BB-\J	.	.
=25	=25	=25
8EE-\L	4B-'/ 4b-'/	.
8BB-\	.	.
8G\	4r	.
8BB-\J	.	.
8EE-\L	4b-'\ 4bb-'\	.
8BB-\	.	.
8G\	4r	.
8BB-\J	.	.
=26	=26	=26
*	*8va	*
8FF\L	2.bb-\ 2.bbb-\	f
*	*X8va	*
8BB-\	.	.
8A-\	.	.
8BB-\J	.	.
8FF\L	.	.
8BB-\	.	.
8A-\	[4b-\ [4bb-\	.
8BB-\J	.	.
=27	=27	=27
8GG\L	2.b-\] (2.bb-\]	.
8E-\	.	.
8B-\	.	.
8E-\J	.	.
8GG\L	.	.
8E-\	.	.
8B-\	4g\ 4gg\	.
8E-\J	.	.
=28	=28	=28
8AA-\L	4en\ 4een\	.
8E-\	.	.
8c\	4f\ 4ff\	.
8E-\J	.	.
8AAn\L	4c\ 4cc\	.
8F\	.	.
8c\	4e-\ 4ee-\)	.
8F\J	.	.
=29	=29	=29
4BB-\ 4B-\	8d\ (8dd\L	.
.	8b-\	.
(8e-\L	8an\	.
8d\J	8b-\J	.
8c\L	8a\ 8cc\L	.
8B-\	8b-\ 8dd\	.
8An\	8cc\ 8ee-\	.
8A-\J	8dd\ 8ff\J)	.
=30	=30	=30
8G\L	2ee-\ 2gg\	.
8F\	.	.
8E-\	.	.
8D\J	.	.
8E-\L	8aa-\ 8ccc\L	.
8F\	8gg\ 8bb-\	.
8G\	8ff\ 8aa-\	.
8A-\J)	8ee-\ 8gg\J	.
*clefG2	*	*
=31	=31	=31
4B-/	4dd\ 4ff\	.
8c/L	4r	.
8d/J	.	.
*	*8va	*
8e-/L	8aaa-\ (8cccc\L	.
8f/	8ggg\ 8bbb-\	.
8g/	8fff\ 8aaa-\	.
8a-/J	8eee-\ 8ggg\J	.
=32	=32	=32
(4b-/	4ddd\ 4fff\)	.
*	*X8va	*
8a-/L	8dd\ (8ccc\L	.
8g/J	8ee-\ 8bb-\J	.
8f/L	8bn\ 8aa-\L	.
8e-/)	8cc\ 8gg\)	.
8d'/	8g'\ 8ff'\	.
8c'/J	8ee-'\ 8ff#'\J	.
*clefF4	*	*
=33	=33	=33
8Bn'\L	8dd'\ 8gg'\L	.
8An'\	8dd'\ 8ff#'\ 8aan'\	.
8G'\	8dd'\ 8gg'\ 8bbn'\	.
8Fn'\J	8dd'\ 8gg'\ 8bb'\J	.
8E-'/L	8ee-'\ 8gg'\ 8ccc'\L	.
8D'/	8ffn'\ 8bb'\ 8ddd'\	.
8C'/	8gg'\ 8ccc'\ 8eee-'\	.
8BB-'/ 8C'/J	8gg\ 8ccc\ 8eeen\J	.
=34	=34	=34
4BB-'/ 4C'/	4gg'\ 4ccc'\ 4eeen'\	f
4r	4r	.
4AAn/ 4C/	4ff'\ 4ccc'\ 4fff'\	.
4r	4r	.
=35	=35	=35
*^	*^	*
[1C	(2.GG-\	(2.ee-/	[1b-	.
.	4FF\)	4ff/)	.	.
*v	*v	*	*	*
=36	=36	=36	=36
1EE- 1C]	1gg-	4b-\]	.
.	.	(8b-\L	.
.	.	8an\J	.
.	.	8b-\L	.
.	.	8a\	.
.	.	8b-\	.
.	.	8a\J)	.
=37	=37	=37	=37
*^	*	*	*
[1C	(2.GG-\	(2.ee-/	[1b-	.
.	4FF\)	4ff/)	.	.
*v	*v	*	*	*
=38	=38	=38	=38
1EEn 1C]	1ggn	4b-\]	.
.	.	(8b-\L	.
.	.	8an\J	.
.	.	8b-\L	.
.	.	8a\	.
.	.	8b-\	.
.	.	8a\J)	.
*	*v	*v	*
=39	=39	=39
4FF/ 4C/	4gg-'\	p
4r	(8b-\L	.
.	8an\J	.
2r	8b-\L	.
.	8a\	.
.	8b-\	.
.	8a\J)	.
=40	=40	=40
4FF/ 4D/	4ff'\	.
4r	(8cc\L	.
.	8bn\J	.
2r	8cc\L	.
.	8b\	.
.	8cc\	.
.	8b\J)	.
=41	=41	=41
4FF/ 4E-/	4ff'\	.
4r	(8dd\L	.
.	8cc\J)	.
4FF/ 4D/	4ff'\	.
4r	(8cc\L	.
.	8b-\J)	.
=42	=42	=42
4FF/ 4C/	4ff'\	.
4r	(8b-\L	.
.	8an\J)	.
4FF/ 4D/	4ff'\	.
4r	(8cc\L	.
.	8b-\J)	.
=43	=43	=43
4FF/ 4C/	4gg-'\	.
4r	(8b-/L	.
.	8an/J	.
2r	8b-/L	.
.	8a/	.
.	8b-/	.
.	8a/J)	.
=44	=44	=44
4FF/ 4D/	4ff'\	.
4r	(8cc\L	.
.	8bn\J	.
2r	8cc\L	.
.	8b\	.
.	8cc\	.
.	8b\J)	.
=45	=45	=45
4FF/ 4E-/	4ff'\	.
4r	(8dd\L	.
.	8cc\J)	.
4FF/ 4D/	4ff'\	.
4r	8cc\L	.
.	8bn\J	.
=46	=46	=46
4FF/ 4E-/	4ff'\	.
4r	(8dd\L	.
.	8cc\J)	.
(4F\	4ff\	.
8G\L	4cc\ [4ee-\	.
8An\J	.	.
=47	=47	=47
*	*^	*
8B-\L	4cc/ 4ee-/]	2f\	.
8c\	.	.	.
8d\	4b-/ 4dd/	.	.
8e-\J	.	.	.
4f\)	4an/ 4cc/	2r	.
*clefG2	*	*	*
(8g/L	[4ccc\ [4eee-\	.	.
8an/J	.	.	.
=48	=48	=48	=48
8b-\L	4ccc/] 4eee-/]	2ff\	.
8cc\	.	.	.
8dd\	4bb-/ 4ddd/	.	.
8ee-\J	.	.	.
4ff\)	4ccc/	4aan\	.
(4ee-\	4ggg/	4aa\ 4ccc\	.
=49	=49	=49	=49
4dd\)	4ggg/	4ff\ 4bb-\	.
4dd-\	2fff/	4ff\ 4bb-\	.
4cc\	.	4gg\ 4bb-\	.
4f/	4eee-/	4aan\ 4ccc\	.
=50	=50	=50	=50
*^	*	*	*
4B-\	1B-	1ddd	8ddd\L	.
.	.	.	8ff\	.
(2c#\ 2en\	.	.	8gg\	.
.	.	.	8ff\J	.
.	.	.	8gg\L	.
.	.	.	8ff\	.
4d\) 4f\	.	.	8gg\	.
.	.	.	8ff\J	.
*v	*v	*	*	*
=51	=51	=51	=51
*^	*	*	*
*	*^	*	*	*
4r	4B-/	1B-	1ccc	8ccc\L	.
.	.	.	.	8ee-\	.
2g-/	(2.an\	.	.	8ff\	.
.	.	.	.	8ee-\J	.
.	.	.	.	8ff\L	.
.	.	.	.	8ee-\	.
4f/)	.	.	.	8ff\	.
.	.	.	.	8ee-\J	.
*	*v	*v	*	*	*
=52	=52	=52	=52	=52
(4B-/	1B-	2bb-/	8dd\L	.
.	.	.	8b-\	.
4d/ 4f/	.	.	8cc\	.
.	.	.	8b-\J	.
4e-/ 4gn/	.	4gg/	(8gg\L	.
.	.	.	8b-\	.
4d/ 4f/)	.	4ff/)	8ff\	.
.	.	.	8b-\J	.
*v	*v	*	*	*
*clefF4	*	*	*
=53	=53	=53	=53
*^	*	*	*
(4d/	1F	(4ff/	8b-\L	.
.	.	.	8f\	.
4c/ 4e-/	.	4ee-/	8an\	.
.	.	.	8f\J	.
4B-/ 4d/	.	4dd/	8b-\L	.
.	.	.	8f\	.
4An/) 4c/	.	4cc/	8cc\)	.
.	.	.	8f\J	.
=54	=54	=54	=54	=54
4r	1BB-	1dd	8dd\L	.
.	.	.	8f\	.
2C#/ (2En/	.	.	8g\	.
.	.	.	8f\J	.
.	.	.	8g\L	.
.	.	.	8f\	.
4D/ 4F/)	.	.	8g\	.
.	.	.	8f\J	.
*v	*v	*	*	*
=55	=55	=55	=55
*^	*	*	*
*	*^	*	*	*
4r	4r	1BB-	1cc	8cc\L	.
.	.	.	.	8e-\	.
2.An/	(2G-\	.	.	8f\	.
.	.	.	.	8e-\J	.
.	.	.	.	8f\L	.
.	.	.	.	8e-\	.
.	4F\)	.	.	8f\	.
.	.	.	.	8e-\J	.
*	*v	*v	*	*	*
=56	=56	=56	=56	=56
(4BB-\	1BB-	2b-/	8d\L	.
.	.	.	8B-\	.
4D/ 4F/	.	.	8c\	.
.	.	.	8B-\J	.
4E-/ 4Gn/	.	4g/	(8g\L	.
.	.	.	8B-\	.
4D/) 4F/	.	4f/)	8f\	.
.	.	.	8B-\J	.
*	*	*v	*v	*
*	*	*clefF4	*clefF4
=57	=57	=57	=57
*	*	*^	*
(4D/	1FF	(4f/	8B-\L	.
.	.	.	8F\	.
4C/ 4E-/	.	4e-/	8An\	.
.	.	.	8F\J	.
4BB-/ 4D/	.	4d/	8B-\L	.
.	.	.	8F\	.
4AAn/) 4C/	.	4c/	8c\)	.
.	.	.	8F\J	.
*v	*v	*	*	*
=58	=58	=58	=58
(4.BBB-/ 4.BB-/	[2B-/	8B-\L	.
.	.	[8G-\J	.
.	.	[4D\ 4G-\_	.
8GG-/	.	.	.
4FF/	8B-/L]	8D\] 8G-\]	.
.	8F/	4.r	.
4BBB-/	8D/	.	.
.	[8B-/J	.	.
=59	=59	=59	=59
*^	*	*	*
4r	4FFF/)	8B-/L]	2F\	.
.	.	8B-/	.	.
8E-\L	4r	8An/	.	.
8D\J	.	8B-/J	.	.
8C/L	4r	8c\L	2r	.
8BB-/	.	8d\	.	.
8AAn/	4FF\	8e-\	.	.
8F/J	.	8c\J	.	.
*v	*v	*	*	*
*	*v	*v	*
*	*clefG2	*clefG2
=60	=60	=60
*	*^	*
(4.BB-/	[2b-/	8b-\L	.
.	.	[8g-\J	.
.	.	[4d\ 4g-\_	.
8G-\	.	.	.
4F\	8b-/L]	8d\] 8g-\]	.
.	8f/	4.r	.
4BB-/	8d/	.	.
.	[8b-/J	.	.
=61	=61	=61	=61
4FF/)	2f\	8b-/L]	.
.	.	8b-/	.
4e-\	.	8an/	.
.	.	8b-/J	.
8c\L	8cc\L	2r	.
8B-\	8dd\	.	.
8F\ 8An\	8ee-\	.	.
8c\J	8cc\J	.	.
*	*v	*v	*
=62	=62	=62
4.B-\ 4.d\	8dd\L	p
.	8cc\J	.
.	4.b-/	.
8c\	.	.
4.B-\	.	.
.	8g/	.
.	[4f/	.
8G\	.	.
=63	=63	=63
4.F\	8f/L]	.
.	8e-/J	.
.	4.d/	.
8E-\	.	.
4.D\	.	.
*	*clefF4	*clefF4
.	8c\	.
.	[4B-\	.
8C/	.	.
=64	=64	=64
4.BB-/	8B-\L]	.
.	8G\J	.
.	4.F\	.
8GG/	.	.
4.FF/	.	.
.	8E-\	.
.	[4D\	.
8EE-/	.	.
=65	=65	=65
4.DD/	8D/L]	.
.	8C/J	.
.	4.BB-/	.
8CC/	.	.
4.BBB-/	.	.
.	8C/	.
.	[4BB-/	.
*clefG2	*	*
8f/ 8a-/	.	.
=66	=66	=66
1f 1a-	4BB-/]	p
.	4r	.
.	2r	.
*	*clefG2	*clefG2
=67	=67	=67
1e- 1g	1r	.
=68	=68	=68
*>A1	*>A1	*>A1
1d 1f	1b- 1ff	.
=69	=69	=69
1d- 1e-	1b- 1gg	.
=70:|!	=70:|!	=70:|!
*>A2	*>A2	*>A2
1d 1f	1b- 1ff	.
=71	=71	=71
1c 1e-	1a- 1aa-	.
=72	=72	=72
*>B	*>B	*>B
2.Bn/ 2.d/	2.g\ 2.gg\	f
4B-/ 4d/	(8dd\L	.
.	8gg\J)	.
=73	=73	=73
4An/ 4c/	4g'\ 4gg'\	.
4r	(8cc\L	.
.	8ff\J)	.
4A-/ 4c/	4f'\ 4ff'\	.
4r	(8cc\L	.
.	8ee-\J)	.
*clefF4	*	*
=74	=74	=74
*	*^	*
4G\ 4c\	4e-'\ 4ee-'\	4r	.
4F#\ 4c\	4r	(8a\L	.
.	.	8dd\J)	.
4Fn\ 4G\ 4Bn\	4d'/ 4g'/ 4dd'/	4r	.
4E-\ 4G\ 4c\	(8gg/L	4cc\	.
.	8ccc/J)	.	.
*	*v	*v	*
=75	=75	=75
1r	(1f	p
=76	=76	=76
1r	1e-)	.
=77	=77	=77
4r	[1g- [1an [1ee-	p
(8C\L	.	.
8G-\J)	.	.
4G-'\	.	.
8AAn/L	.	.
8E-/J	.	.
=78	=78	=78
4E-'\	2.g-/] 2.a/] 2.ee-/]	.
(8FF/L	.	.
8C/J)	.	.
4C'/	.	.
4D-'/	4f/ 4b-/ 4dd-/	.
=79	=79	=79
*k[b-e-a-]	*k[b-e-a-]	*k[b-e-a-]
1r	(1dd-	.
=80	=80	=80
1r	1cc)	.
*clefG2	*	*
=81	=81	=81
4r	[1cc [1ddn [1ff# [1aan	.
(8dn/L	.	.
8an/J)	.	.
4a'/	.	.
*clefF4	*	*
(8F#\L	.	.
8c\J)	.	.
=82	=82	=82
4c'\	1cc] 1dd] 1ff#] 1aa]	.
8D\L	.	.
8An\J	.	.
4A'\	.	.
(8DD/L	.	.
8D/J)	.	.
=83	=83	=83
1r	(1cc	.
=84	=84	=84
1r	1cc-)	.
=85	=85	=85
4r	[1cc- [1ee- [1gg- [1aan	.
(8G-\L	.	.
8e-\J)	.	.
4e-'\	.	.
(8E-\L	.	.
8c-\J)	.	.
=86	=86	=86
4c-'\	1cc-] 1ee-] 1gg-] 1aa]	.
(8C-\L	.	.
8G-\J)	.	.
4G-'\	.	.
(8GG-/L	.	.
8E-/J)	.	.
=87	=87	=87
1r	(1cc-	.
=88	=88	=88
1r	1b-)	.
*clefG2	*	*
=89	=89	=89
4r	[1b- [1dd [1ff [1aa-	.
(8A-/L	.	.
8f/J)	.	.
4f'/	.	.
(8F/L	.	.
8d/J)	.	.
=90	=90	=90
4d'/	4b-\] 4dd\] 4ff\] 4aa-\]	.
*clefF4	*	*
8D\ (8F\L	(4bb-\	.
8F\ 8A-\J)	.	.
4F'\ 4A-'\	4ccc-\	.
8D\ (8F\L	4bb-\)	.
8F\ 8A-\J)	.	.
*clefG2	*	*
=91	=91	=91
4r	[1b- [1dd [1ff [1aa-	.
(8A-/L	.	.
8f/J)	.	.
4f'/	.	.
(8F/L	.	.
8d/J)	.	.
=92	=92	=92
4d'/	4b-\] 4dd\] 4ff\] 4aa-\]	.
(4dd\	4ff\ (4bb-\	.
4ee-\	4gg-\ 4ccc-\	.
4dd\)	4ff\ 4bb-\)	.
=93	=93	=93
*	*^	*
2.d-/ 2.gn/ 2.b-/	2.ee-\ 2.ggn\ 2.bb-\ 2.eee-\	2.r	f
4c-/ 4f/ 4a-/	(8aa-/L	4ff\	.
.	8ddd-/J)	.	.
=94	=94	=94	=94
4B-/ 4d-/ 4g-/	4gg-\ 4ddd-\	4r	.
*clefF4	*	*	*
4A-\ 4d-\	(8ff/L	4cc-\	.
.	8ccc-/J)	.	.
4F\ 4d-\	4cc-\ 4aa-\ (4ccc-\	4r	.
4G-\ 4d-\	4r	4b-\ 4gg-\ 4bb-\	.
*	*v	*v	*
=95	=95	=95
4c-\ 4e-\	4a-\ 4aa-\	p
4B-\ 4d-\	4g-\ 4gg-\	.
4A-\ 4c-\	4f\ 4ff\	.
4G-\ 4B-\	4g-\ 4gg-\)	.
=96	=96	=96
4r	1a- 1cc- 1aa-	.
(8FF/L	.	.
8D-/J)	.	.
4D-'\	.	.
(8F\L	.	.
8d-\J)	.	.
=97	=97	=97
4r	1a- 1bn 1aa-	pp
(8FF/L	.	.
8Dn/J)	.	.
4D'\	.	.
(8F\L	.	.
8dn\J)	.	.
=98	=98	=98
4r	1gn 1cc 1ggn	.
(8EE-/L	.	.
8C/J)	.	.
4C'/	.	.
(8E-\L	.	.
8c\J)	.	.
=99	=99	=99
4r	1f 1g 1bn 1ff	.
(8DD/L	.	.
8BBn/J)	.	.
4BB'/	.	.
(8D\L	.	.
8Bn\J)	.	.
=100	=100	=100
4r	1e- 1g 1cc 1ee-	.
(8CC/L	.	.
8C/J)	.	.
4C'/	.	.
(8C\L	.	.
8c\J)	.	.
=101	=101	=101
4r	1f 1a- 1bn 1dd	.
(8CC/L	.	.
8C/J)	.	.
4C'/	.	.
(8C\L	.	.
8c\J)	.	.
=102	=102	=102
4r	1e- 1g 1cc	.
(8CC/L	.	.
8C/J	.	.
4C'/)	.	.
(8C\L	.	.
8c\J)	.	.
=103	=103	=103
4r	1Bn 1d 1f 1a-	.
(8CC/L	.	.
8C/J	.	.
4C'/)	.	.
(8C\L	.	.
8c\J)	.	.
=104	=104	=104
4r	1c 1e- 1g	.
(8CC/L	.	.
8C/J	.	.
4C'/)	.	.
(8C\L	.	.
8c\J)	.	.
=105	=105	=105
4r	1c 1e- 1a-	.
(8CC/L	.	.
8C/J	.	.
4C'/)	.	.
(8C\L	.	.
8c\J)	.	.
=106	=106	=106
4r	1e- 1a-	pp
(8C\L	.	.
8c\J)	.	.
(8C\L	.	.
8c\J)	.	.
4r	.	.
=107	=107	=107
4r	1d 1a-	.
(8BBn\L	.	.
8Bn\J)	.	.
(8BB\L	.	.
8B\J)	.	.
4r	.	.
=108	=108	=108
4r	1e- 1a-	.
(8C\L	.	.
8c\J)	.	.
(8C\L	.	.
8c\J)	.	.
4r	.	.
=109	=109	=109
4r	1e- 1a-	.
(8C\L	.	.
8c\J)	.	.
(8C\L	.	.
8c\J)	.	.
4r	.	.
=110	=110	=110
4r	2.e-/ 2.a-/	.
(8C\L	.	.
(8c\J)	.	.
8C\L	.	.
8c\)	.	.
(8C\	(8A-/L	.
8c\J)	8a-/J)	.
=111	=111	=111
(8C\L	(8A-/L	.
8c\J)	8a-/J)	.
(8c\L	(8a-\L	.
(8e-\J)	8aa-\J)	.
8c\L	(8a-\L	.
(8e-\)	8aa-\)	.
8c\	(8a-\	.
8e-\J)	8aa-\J)	.
=112	=112	=112
*	*^	*
2.c\ 2.e-\	2.a-\ 2.aa-\	2.r	f
8Bn\ (8d\L	(8dd/L	4g\	.
8B-\ 8d-\J)	8gg/J)	.	.
=113	=113	=113	=113
4B-\ 4d-\	4gg/	4g\	.
8An\ (8c\L	(8cc/L	4f\	.
8A-\ 8c-\J)	8ff/J)	.	.
4A-\ 4c-\	4ff/	4f\	.
8G\ (8B-\L	(8b-/L	4e-\	.
8F#\ 8An\J)	8ee-/J)	.	.
*	*v	*v	*
=114	=114	=114
2.Fn\ 2.A-\	2e-\ 2a-\ 2b-\ (2ee-\	.
.	4d\ 4a-\ 4b-\ 4dd\	p
4E-\ 4G\	4e-\ 4b-\ 4ee-\	.
=115	=115	=115
4D\ 4F\	4f\ 4b-\ 4ff\	.
4C\ 4E-\	4g\ 4b-\ 4gg\	.
4BB-\ 4D\	4a-\ 4b-\ 4aa-\	.
4BB-\ 4D\ 4F\	4b-\ 4bb-\)	.
=116	=116	=116
8EE-\L	4g'\ 4b-'\ 4gg'\	.
8BB-\	.	.
8G\	4r	.
8BB-\J	.	.
8EE-\L	4b-'\ 4bb-'\	.
8BB-\	.	.
8G\	4r	.
8BB-\J	.	.
=117	=117	=117
*	*8va	*
8FF\L	2.bb-\ 2.bbb-\	.
*	*X8va	*
8BB-\	.	.
8A-\	.	.
8BB-\J	.	.
8FF\L	.	.
8BB-\	.	.
8A-\	[4b-\ [4bb-\	.
8BB-\J	.	.
=118	=118	=118
8GG\L	2.b-\] (2.bb-\]	.
8BB-\	.	.
8B-\	.	.
8BB-\J	.	.
8GG\L	.	.
8BB-\	.	.
8B-\	4g\ 4gg\	.
8BB-\J	.	.
=119	=119	=119
8AA-\L	4f/ 4ff/	.
8BB-\	.	.
8A-\	4d/ 4dd/	.
8BB-\J	.	.
8BBB-/L	4c-/ 4cc-/	.
8BB-/	.	.
8F/	4B-/ 4b-/)	.
8BB-/J	.	.
=120	=120	=120
8EE-\L	4B-'/ 4b-'/	.
8BB-\	.	.
8G\	4r	.
8BB-\J	.	.
8EE-\L	4b-'\ 4bb-'\	.
8BB-\	.	.
8G\	4r	.
8BB-\J	.	.
=121	=121	=121
*	*8va	*
8FF\L	2.bb-\ 2.bbb-\	.
*	*X8va	*
8BB-\	.	.
8A-\	.	.
8BB-\J	.	.
8FF\L	.	.
8BB-\	.	.
8A-\	[4b-\ [4bb-\	.
8BB-\J	.	.
=122	=122	=122
8GG\L	2.b-\] (2.bb-\]	.
8E-\	.	.
8B-\	.	.
8E-\J	.	.
8GG\L	.	.
8E-\	.	.
8B-\	4g\ 4gg\	.
8E-\J	.	.
=123	=123	=123
8AA-\L	4en\ 4een\	.
8E-\	.	.
8c\	4f\ 4ff\	.
8E-\J	.	.
8AAn\L	4c\ 4cc\	.
8F\	.	.
8c\	4e-\ 4ee-\)	.
8F\J	.	.
=124	=124	=124
4BB-/	8d\ (8dd\L	.
.	8b-\	.
(8e-\L	8an\	.
8d\J	8b-\J	.
8c\L	8a\ 8cc\L	.
8B-\	8b-\ 8dd\	.
8An\	8cc\ 8ee-\	.
8A-\J	8dd\ 8ff\J)	.
=125	=125	=125
8G\L	2ee-\ 2gg\	.
8F\	.	.
8E-\	.	.
8D\J	.	.
8E-\L	8aa-\ 8ccc\L	.
8F\	8gg\ 8bb-\	.
8G\	8ff\ 8aa-\	.
8A-\J)	8ee-\ 8gg\J	.
=126	=126	=126
4B-'\	4dd'\ 4ff'\	.
(8f\L	8bn\ (8aa-\L	.
8e-\J	8cc\ 8gg\J	.
8d\L	8g\ 8ff\L	.
8c\)	8ee-\ 8ff#\)	.
8Bn'\	8dd'\ 8gg'\	.
8An'\J	8dd'\ 8ff#'\ 8aan'\J	.
=127	=127	=127
8G'\L	8dd'\ 8gg'\ 8bbn'\L	.
8F'\	8dd'\ 8gg'\ 8bb'\	.
8E-'\	8ee-'\ 8gg'\ 8ccc'\	.
8D'\J	8ff'\ 8bb'\ 8ddd'\J	.
8C'/L	8gg'\ 8ccc'\ 8eee-'\L	.
8BB-'/	8gg'\ 8ccc'\ 8eeen'\	.
8AAn'/ 8C'/	8ff'\ 8ccc'\ 8fff'\	.
8AA'/ 8C'/J	8ff'\ 8ccc'\ 8fff'\J	.
=128	=128	=128
4AA-'/ 4BB-'/	4ff'\ 4bb-'\ 4ddd'\	f
4r	4r	.
4GG'/ 4BB-'/	4ee-'\ 4bb-'\ 4eee-'\	.
4r	4r	.
=129	=129	=129
*^	*^	*
[1F	(2.C-\	(2.a-/	[1e-	.
.	4BB-\)	4b-/)	.	.
*v	*v	*	*	*
=130	=130	=130	=130
1AA- 1F]	1cc-	4e-\]	.
.	.	(8e-\L	.
.	.	8d\J	.
.	.	8e-\L	.
.	.	8d\	.
.	.	8e-\	.
.	.	8d\J)	.
=131	=131	=131	=131
*^	*	*	*
1F	(2.C-\	2.a-/	[1e-	.
.	4BB-\)	4b-/	.	.
*v	*v	*	*	*
=132	=132	=132	=132
1AAn 1F	1ccn	4e-\]	.
.	.	(8e-\L	.
.	.	8d\J	.
.	.	8e-\L	.
.	.	8d\	.
.	.	8e-\	.
.	.	8d\J)	.
*	*v	*v	*
=133	=133	=133
4BB-\ 4F\	4cc-'\	p
4r	(8e-/L	.
.	8d/J	.
2r	8e-/L	.
.	8d/	.
.	8e-/	.
.	8d/J)	.
=134	=134	=134
4BB-\ 4G\	4b-'/	.
4r	(8f/L	.
.	8en/J	.
2r	8f/L	.
.	8e/	.
.	8f/	.
.	8e/J)	.
=135	=135	=135
4BB-\ 4A-\	(4b-'/	.
4r	8g/L	.
.	8f/J)	.
4BB-\ 4G\	4b-'/	.
4r	(8f/L	.
.	8e-/J)	.
=136	=136	=136
4BB-\ 4F\	4b-'/	.
4r	(8e-/L	.
.	8d/J)	.
4BB-\ 4G\	4b-'/	.
4r	(8f/L	.
.	8e-/J)	.
*clefG2	*	*
=137	=137	=137
4B-/ 4f/	4ccc-'\	.
4r	(8ee-\L	.
.	8dd\J	.
2r	8ee-\L	.
.	8dd\	.
.	8ee-\	.
.	8dd\J)	.
=138	=138	=138
4B-/ 4g/	4bb-'\	.
4r	(8ff\L	.
.	8een\J	.
2r	8ff\L	.
.	8ee\	.
.	8ff\	.
.	8ee\J)	.
=139	=139	=139
4B-/ 4a-/	4bb-'\	.
4r	(8gg\L	.
.	8ff\J)	.
4B-/ 4g/	4bb-'\	.
4r	(8ff\L	.
.	8een\J)	.
=140	=140	=140
4B-/ 4a-/	4bb-'\	.
4r	(8gg\L	.
.	8ff\J)	.
4B-/	(4bb-\	.
*	*8va	*
8c/L	4fff\ [4aaa-\	.
8d/J	.	.
=141	=141	=141
*	*^	*
8e-/L	4fff/ 4aaa-/]	2bb-\	.
8f/	.	.	.
8g/	4eee-/ 4ggg/	.	.
8a-/J	.	.	.
4b-/	4ddd\ 4fff\)	4r	.
8cc\L	4r	[4fff\ ([4aaa-\	.
8dd\J	.	.	.
=142	=142	=142	=142
8ee-\L	4fff/] 4aaa-/]	2.bb-\	.
8ff\	.	.	.
8gg\	4eee-/ 4ggg/	.	.
8aa-\J	.	.	.
4bb-\	4ddd/ 4fff/)	.	.
4aa-\	([4cccc/	4ddd\ 4fff\	.
=143	=143	=143	=143
4gg\	4cccc/]	4bb-\ 4eee-\	.
4gg-\	2bbb-/	4bb-\ 4eee-\	.
4ff\	.	4ccc\ 4eee-\	.
4b-\	4aaa-/	4ddd\ 4fff\)	.
*	*	*X8va	*
=144	=144	=144	=144
*^	*	*	*
4e-/	1e-	1gg 1ggg	8gg\L	mp
.	.	.	8bb-\	.
(2f#/ 2a-/	.	.	8ccc\	.
.	.	.	8bb-\J	.
.	.	.	8ccc\L	.
.	.	.	8bb-\	.
4g/) 4b-/	.	.	8ccc\	.
.	.	.	8bb-\J	.
*v	*v	*	*	*
=145	=145	=145	=145
*^	*	*	*
*	*^	*	*	*
4r	4e-/	1e-	1ff 1fff	8ff\L	.
.	.	.	.	8aa-\	.
2.ddn/	(2cc-\	.	.	8bb-\	.
.	.	.	.	8aa-\J	.
.	.	.	.	8bb-\L	.
.	.	.	.	8aa-\	.
.	4b-\)	.	.	8bb-\	.
.	.	.	.	8aa-\J	.
*	*v	*v	*	*	*
=146	=146	=146	=146	=146
4e-\	1e-	(2eee-/	8gg\L	.
.	.	.	8ee-\	.
4g\ 4b-\	.	.	8ff\	.
.	.	.	8ee-\J	.
4a-\ 4ccn\	.	4ccc/	8ccc\L	.
.	.	.	8ee-\	.
4g\ 4b-\	.	4bb-/	8bb-\	.
.	.	.	8ee-\J	.
=147	=147	=147	=147	=147
4g/	1B-	4bb-/	8bb-\L	.
.	.	.	8b-\	.
4f/ 4a-/	.	4aa-/	8dd\	.
.	.	.	8b-\J	.
4e-/ 4g/	.	4gg/	8ee-\L	.
.	.	.	8b-\	.
4d/ 4f/	.	4ff/)	8a-\	.
.	.	.	8b-\J	.
*v	*v	*	*	*
*clefF4	*	*	*
=148	=148	=148	=148
*^	*	*	*
4E-/	1E-	1g 1gg	8g\L	.
.	.	.	8b-\	.
(2F#/ 2An/	.	.	8cc\	.
.	.	.	8b-\J	.
.	.	.	8cc\L	.
.	.	.	8b-\	.
4G/) 4B-/	.	.	8cc\	.
.	.	.	8b-\J	.
*v	*v	*	*	*
=149	=149	=149	=149
*^	*	*	*
*	*^	*	*	*
4r	4r	1E-	1f 1ff	8f\L	.
.	.	.	.	8a-\	.
2.dn/	(2c-\	.	.	8b-\	.
.	.	.	.	8a-\J	.
.	.	.	.	8b-\L	.
.	.	.	.	8a-\	.
.	4B-\)	.	.	8b-\	.
.	.	.	.	8a-\J	.
*	*v	*v	*	*	*
*v	*v	*	*	*
=150	=150	=150	=150
2E-\ 2G\ 2B-\	(2ee-/	8g\L	.
.	.	8e-\	.
.	.	8f\	.
.	.	8e-\J	.
4AA-\ 4E-\ 4A-\	4a-/ 4cc/	8c\L	.
.	.	8e-\	.
4EE-/ 4E-/	4g/ 4b-/)	8B-\	.
.	.	8e-\J	.
=151	=151	=151	=151
4BBB-/	(4b-/	8g\L	.
.	.	8B-\	.
4BB-/	4a-/	8f\	.
.	.	8A-\J	.
4BBB-/	4g/	8e-\L	.
.	.	8G\	.
4BB-/	4f/)	8d\	.
.	.	8F\J	.
=152	=152	=152	=152
(4.EE-/	[2e-/	8e-\L	mf
.	.	[8c-\J	.
.	.	[4G\ 4c-\_	.
8C-/	.	.	.
4BB-/	8e-/L]	8G\] 8c-\]	.
.	8B-/	4.r	.
4EE-/)	8G/	.	.
.	[8e-/J	.	.
=153	=153	=153	=153
*^	*	*	*
8A-\L	4BBB-/	8e-/L]	2B-\	.
8G\J	.	8e-/	.	.
8F\L	4r	8d/	.	.
8E-\J	.	8e-/J	.	.
4r	4r	8f/L	2r	.
.	.	8g/	.	.
4BB-\	8D/L	8a-/	.	.
.	8B-/J	8f/J	.	.
*v	*v	*	*	*
=154	=154	=154	=154
(4.E-\	([2ee-/	8ee-\L	.
.	.	8cc-\J)	.
.	.	[4g\ [4cc-\	.
8c-\	.	.	.
4B-\	8ee-/L]	8g\] 8cc-\]	.
.	8b-/	4.r	.
4E-\)	8g/	.	.
.	[8ee-/J	.	.
=155	=155	=155	=155
*^	*	*	*
4BB-/	4r	2b-\	8ee-/L]	.
.	.	.	8ee-/	.
*clefG2	*clefG2	*	*	*
8a-/L	4r	.	8dd/	.
8g/J	.	.	8ee-/J	.
8f/L	4r	8ff\L	2r	.
8e-/	.	8gg\	.	.
8d/	4B-\	8aa-\	.	.
8f/J	.	8ff\J	.	.
*v	*v	*	*	*
*	*v	*v	*
=156	=156	=156
4.e-/ 4.g/	8gg\L	p
.	8ff\J	.
.	4.ee-\	.
*clefF4	*	*
8f\	.	.
4.e-\	.	.
.	8cc\	.
.	[4b-\	.
8c\	.	.
=157	=157	=157
4.B-\	8b-/L]	.
.	8a-/J	.
.	4.g/	.
8A-\	.	.
4.G\	.	.
.	8f/	.
.	[4e-/	.
8F\	.	.
=158	=158	=158
4.E-\	8e-/L]	.
.	8c/J	.
.	4.B-/	.
8C/	.	.
4.BB-/	.	.
*	*clefF4	*clefF4
.	8A-\	.
.	[4G\	.
8AA-/	.	.
=159	=159	=159
4.GG/	8G\L]	.
.	8F\J	.
.	4.E-\	.
8FF/	.	.
4.EE-/	.	.
.	8F\	.
.	[4E-\	.
*clefG2	*	*
8b-\ 8dd-\	.	.
=160	=160	=160
1b- 1dd-	4E-\]	p
.	4r	.
.	2r	.
=161	=161	=161
1a- 1cc	1r	.
*	*clefG2	*clefG2
=162	=162	=162
1g 1b-	1ee- 1bb-	.
=163	=163	=163
1f 1a-	1dd- 1ddd-	.
=164	=164	=164
2.en/ 2.g/	2.cc\ 2.ccc\	f
(8e-/ 8an/L	8cc\ (8ff\L	.
8d-/) 8f/J	8dd-\ 8bb-\J)	.
=165	=165	=165
(4d-'/ 4f'/	4dd-'\ 4bb-'\	.
8d-/ 8g/L	8b-\ (8ee-\L	.
8c/) 8e-/J	8cc\ 8aa-\J)	.
4c'/ 4e-'/	4cc'\ 4aa-'\	.
(8c/ 8f/L	8a-\ (8dd-\L	.
8B-/) 8d-/J	8b-\ 8gg\J)	.
=166	=166	=166
4B-'/ 4d-'/	4b-'\ 4gg'\	.
(8B-/ 8en/L	8g\ (8cc\L	.
8A-/) 8c/J	8a-\ 8ff\J)	.
4A-'/ 4c'/	4a-'\ 4ff'\	.
*clefF4	*	*
4A-\ 4Bn\	4f\ 4ff\	.
=167	=167	=167
[2G\ [2B-\	2f\ (2ff\	.
4G\] 4B-\]	4en\ 4een\	p
4F\ 4A-\	4f\ 4ff\	.
=168	=168	=168
4En\ 4G\	4g\ 4cc\ 4gg\	.
4Dn\ 4F\	4a-\ 4cc\ 4aa-\	.
4C\ 4E\	4b-\ 4cc\ 4bb-\	.
4C\ 4E\ 4G\ 4B-\	4g\ 4cc\ 4een\ 4gg\)	.
=169	=169	=169
8FF\L	4a-'\ 4cc'\ 4ff'\ 4aa-'\	.
8C\	.	.
8A-\	4r	.
8C\J	.	.
8FF\L	4cc'\ 4ccc'\	.
8C\	.	.
8A-\	4r	.
8C\J	.	.
=170	=170	=170
*	*8va	*
8GG\L	2.ccc\ 2.cccc\	.
*	*X8va	*
8C\	.	.
8B-\	.	.
8C\J	.	.
8GG\L	.	.
8C\	.	.
8B-\	[4cc\ ([4ccc\	.
8C\J	.	.
=171	=171	=171
8AA-\L	2.cc\] 2.ccc\]	.
8C\	.	.
8c\	.	.
8C\J	.	.
8AA-\L	.	.
8C\	.	.
8c\	4a-\ 4aa-\	.
8C\J	.	.
=172	=172	=172
8BB-\L	4g\ 4gg\	.
8C\	.	.
8B-\	4en\ 4een\	.
8C\J	.	.
8CC/L	4d-\ 4dd-\	.
8C/	.	.
8G/	4c/ 4cc/)	.
8C/J	.	.
=173	=173	=173
8FF/L	4c'/ 4cc'/	.
8C/	.	.
8A-/	4r	.
8C/J	.	.
8FF/L	4cc'\ 4ccc'\	.
8C/	.	.
8A-/	4r	.
8C/J	.	.
=174	=174	=174
*	*8va	*
8GG\L	2.ccc\ 2.cccc\	.
*	*X8va	*
8C\	.	.
8B-\	.	.
8C\J	.	.
8GG\L	.	.
8C\	.	.
8B-\	[4cc\ [4ccc\	.
8C\J	.	.
=175	=175	=175
8AA-\L	2.cc\] (2.ccc\]	.
8C\	.	.
8c\	.	.
8C\J	.	.
8FF\L	.	.
8C\	.	.
8A-\	4a-\ 4aa-\	.
8C\J	.	.
=176	=176	=176
8DD/L	4f/ 4ff/	.
8BB-/	.	.
8F/	4d/ 4dd/	.
8BB-/J	.	.
8DD/L	4c-/ 4cc-/	.
8BB-/	.	.
8F/	4B-/ 4b-/)	.
8BB-/J	.	.
=177	=177	=177
8EE-/L	4B-'/ 4b-'/	.
8BB-/	.	.
8G-/	4r	.
8BB-/J	.	.
8EE-/L	4b-'\ 4bb-'\	.
8BB-/	.	.
8G-/	4r	.
8BB-/J	.	.
=178	=178	=178
*	*8va	*
8FF\L	2.bb-\ 2.bbb-\	.
*	*X8va	*
8BB-\	.	.
8A-\	.	.
8BB-\J	.	.
8FF\L	.	.
8BB-\	.	.
8A-\	[4b-\ [4bb-\	.
8BB-\J	.	.
=179	=179	=179
8GG-\L	2.b-\] (2.bb-\]	.
8BB-\	.	.
8B-\	.	.
8BB-\J	.	.
8GG-\L	.	.
8BB-\	.	.
8B-\	4g-\ 4gg-\	.
8BB-\J	.	.
=180	=180	=180
8AA-\L	4f\ 4ff\	.
8BB-\	.	.
8A-\	4d\ 4dd\	.
8BB-\J	.	.
8BBB-\L	4c-/ 4cc-/	.
8BB-\	.	.
8F\	4B-/ 4b-/)	.
8BB-\J	.	.
=181	=181	=181
8EE-\L	4B-'/ 4b-'/	f
8BB-\	.	.
8G-\	4r	.
8BB-\J	.	.
8FF\L	4b-'\ 4bb-'\	.
8BB-\	.	.
8A-\	4r	.
8BB-\J	.	.
=182	=182	=182
*	*8va	*
8GGn\L	4bb-'\ 4bbb-'\	.
8E-\	.	.
8B-\	4r	.
8E-\J	.	.
8AA-\L	4ccc-'\ 4cccc-'\	.
*	*X8va	*
8E-\	.	.
8c-\	4r	.
8E-\J	.	.
=183	=183	=183
1r	1cc-	p
=184	=184	=184
1r	1b-	.
=185	=185	=185
1c-	4a-/	.
.	4r	.
.	2r	.
=186	=186	=186
1B-	1r	.
=187	=187	=187
4A-\	1ccn	.
4r	.	.
2r	.	.
=188	=188	=188
1r	1b-	.
=189	=189	=189
1cn	4an/	.
.	4r	.
.	2r	.
=190	=190	=190
1B-	1r	.
=191	=191	=191
4A-\	1ff	.
4r	.	.
2r	.	.
=192	=192	=192
1r	1ee-	.
*clefG2	*	*
=193	=193	=193
1f 1a-	4dd\	.
.	4r	.
.	2r	.
=194	=194	=194
1e- 1g	1r	.
=195	=195	=195
1d 1f	1b- 1bb-	.
=196	=196	=196
1c 1e-	1a- 1aa-	.
=197	=197	=197
1Bn 1d	[1g [1gg	.
=198	=198	=198
*^	*	*
2e-/	1B-	2g\] 2gg\]	.
4f/	.	4a-\ 4aa-\	.
4d/	.	4f\ 4ff\	.
*v	*v	*	*
*clefF4	*	*
=199	=199	=199
8r	1ee- 1gg	p
(8B-\L	.	.
8c\	.	.
8B-\J	.	.
8An\L	.	.
8B-\	.	.
8G\	.	.
8E-\J	.	.
=200	=200	=200
8A-\L	1b- 1ff	.
8F\	.	.
8D\	.	.
8BB-\J	.	.
8AA-/L	.	.
8FF/	.	.
8DD/	.	.
8BBB-/J)	.	.
=201	=201	=201
(8EE-/L	2g\ (2ee-\	.
8FF/	.	.
8GG/	.	.
8AA-/J	.	.
8BB-/L	4a-\ 4cc\	.
8C/	.	.
8D/	4g\ 4b-\)	.
8E-/J)	.	.
=202	=202	=202
*^	*	*
(8F/L	1BB-	4g/ (4b-/	.
8G/	.	.	.
8A-/	.	4f/ 4a-/	.
8An/J	.	.	.
4B-/)	.	4e-/ 4g/	.
4A-/	.	4B-/ 4f/)	.
*v	*v	*	*
=203	=203	=203
1E- 1G	8e-/L	.
.	8B-/	.
.	8c/	.
.	8B-/J	.
.	8An/L	.
.	8B-/	.
.	8g/	.
.	8e-/J	.
=204	=204	=204
1BB- 1F	8d/L	.
.	8e-/	.
.	8f/	.
.	8g/J	.
.	8a-/L	.
.	8an/	.
.	8cc/	.
.	8b-/J	.
*clefG2	*	*
=205	=205	=205
1e- 1g	8an\L	.
.	8b-\	.
.	8cc\	.
.	8b-\J	.
.	8a\L	.
.	8b-\	.
.	8gg\	.
.	8ee-\J	.
=206	=206	=206
1B- 1f	8dd\L	.
.	8ee-\	.
.	8ff\	.
.	8gg\J	.
.	8aa-\L	.
.	8aan\	.
.	8ccc\	.
.	8bb-\J	.
=207	=207	=207
1ee- 1gg	8aan\L	.
.	8bb-\	.
.	8ccc\	.
.	8bb-\J	.
.	8aa\L	.
.	8bb-\	.
.	8ggg\	.
.	8eee-\J	.
=208	=208	=208
*	*8va	*
2b-\ 2dd\ 2ff\	8ddd\L	.
.	8eee-\	.
.	8fff\	.
.	8ggg\J	.
2a-\ 2b-\ 2dd\ 2ff\	8aaa-\L	.
.	8aaan\	.
.	8cccc\	.
.	8bbb-\J	.
=209	=209	=209
2g/ 2b-/	8aaan\L	.
.	8bbb-\	.
.	8aaa-\	.
.	8ggg\J	.
2e-/ 2g/	8fff\L	.
.	8eee-\	.
.	8ddd\	.
.	8ccc\J	.
*	*X8va	*
=210	=210	=210
2B-/ 2f/ 2a-/	8bb-\L	.
.	8aa-\	.
.	8gg\	.
.	8ff\J	.
2B-/ 2f/ 2a-/	8ee-\L	.
.	8dd\	.
.	8ff\	.
.	8aa-\J	.
*clefF4	*	*
=211	=211	=211
8r	1ee- 1gg	p
(8B-\L	.	.
8c\	.	.
8B-\J	.	.
8An\L	.	.
8B-\	.	.
8G\	.	.
8E-\J	.	.
=212	=212	=212
8A-\L	1b- 1ff	.
8F\	.	.
8D\	.	.
8BB-\J	.	.
8AA-/L	.	.
8FF/	.	.
8DD/	.	.
8BBB-/J)	.	.
=213	=213	=213
8EE-/L	2g\ (2ee-\	.
8FF/	.	.
8GG/	.	.
8AA-/J	.	.
8BB-/L	4a-\ 4cc\	.
8C/	.	.
8D/	4g\ 4b-\)	.
8E-/J	.	.
=214	=214	=214
*^	*	*
(8F/L	1BB-	4g/ (4b-/	.
8G/	.	.	.
8A-/	.	4f/ 4a-/	.
8An/J	.	.	.
4B-/	.	4e-/ 4g/	.
4A-/)	.	4B-/ 4f/)	.
*v	*v	*	*
=215	=215	=215
1E- 1G	8e-/L	.
.	8B-/	.
.	8c/	.
.	8B-/J	.
.	8An/L	.
.	8B-/	.
.	8g/	.
.	8e-/J	.
=216	=216	=216
1BB- 1F	8d/L	.
.	8e-/	.
.	8f/	.
.	8g/J	.
.	8a-/L	.
.	8an/	.
.	8cc/	.
.	8b-/J	.
*clefG2	*	*
=217	=217	=217
1e- 1g	8an\L	.
.	8b-\	.
.	8cc\	.
.	8b-\J	.
.	8a\L	.
.	8b-\	.
.	8gg\	.
.	8ee-\J	.
=218	=218	=218
1B- 1f	8dd\L	.
.	8ee-\	.
.	8ff\	.
.	8gg\J	.
.	8aa-\L	.
.	8aan\	.
.	8ccc\	.
.	8bb-\J	.
=219	=219	=219
1ee- 1gg	8aan\L	.
.	8bb-\	.
.	8ccc\	.
.	8bb-\J	.
.	8aa\L	.
.	8bb-\	.
.	8ggg\	.
.	8eee-\J	.
=220	=220	=220
*	*8va	*
2b-\ 2ff\	8ddd\L	.
.	8eee-\	.
.	8fff\	.
.	8ggg\J	.
2a-\ 2b-\ 2ff\	8aaa-\L	.
.	8aaan\	.
.	8cccc\	.
.	8bbb-\J	.
=221	=221	=221
4g/ 4b-/	8bbb-\	.
*	*X8va	*
.	8b-\L	.
2e-/ 2g/	8cc\	.
.	8b-\J	.
.	8an\L	.
.	8b-\	.
4e-/ 4g/	8gg\	.
.	8ee-\J	.
*clefF4	*	*
=222	=222	=222
2B-\ 2f\	8dd\L	.
.	8ee-\	.
.	8ff\	.
.	8gg\J	.
2A-\ 2B-\ 2f\	8aa-\L	.
.	8aan\	.
.	8ccc\	.
.	8bb-\J	.
=223	=223	=223
4G\ 4B-\	8bb-/L	.
.	8B-/	.
2E-\ 2G\	8c/	.
.	8B-/J	.
.	8An/L	.
.	8B-/	.
4E-\ 4G\	8g/	.
.	8e-/J	.
=224	=224	=224
2BB-\ 2F\ 2A-\	8An/L	.
.	8B-/	.
.	8a-/	.
.	8f/J	.
2BB-\ 2F\ 2A-\	8d/L	.
.	8cc/	.
.	8b-/	.
.	8d/J	.
=225	=225	=225
1r	1e-	p
=226	=226	=226
1r	1B-	.
=227	=227	=227
1E-	4G/	.
.	4r	.
.	2r	.
=228	=228	=228
1BB-	1r	.
=229	=229	=229
4GG/	1e- 1g	.
4r	.	.
2r	.	.
=230	=230	=230
1r	1B- 1f	.
=231	=231	=231
1E- 1G	4G/ 4e-/	.
.	4r	.
.	2r	.
=232	=232	=232
1BB- 1F	2r	.
.	4r	.
.	4e-/ 4g/	pp
=233	=233	=233
4GG/ 4E-/	1B- 1f	pp
4r	.	.
4r	.	.
4E-\ 4G\	.	.
=234	=234	=234
1BB- 1F	4G/ 4e-/	.
.	4r	.
.	4r	.
.	4ee-\ 4gg\	.
=235	=235	=235
4GG/ 4E-/	1b- 1ff	.
4r	.	.
4r	.	.
*clefG2	*	*
4e-/ 4g/	.	.
=236	=236	=236
1B- 1f	4g\ 4ee-\	.
.	4r	.
.	4r	.
.	4eee-\ 4ggg\	.
=237	=237	=237
4G/ 4e-/	4r	.
4r	4eee-\ (4ggg\	.
2r	4bb-\ 4fff\	.
.	4gg\ 4eee-\)	.
=238	=238	=238
4r	4gg\ 4eee-\	.
4ee-\ (4gg\	4r	.
4b-\ 4ff\	2r	.
4g\ 4ee-\)	.	.
=239	=239	=239
4g/ 4ee-/	4r	.
4r	(4e-/ 4g/	.
2r	4B-/ 4f/	.
.	4G/) 4e-/	.
*clefF4	*	*
=240	=240	=240
4r	4G/ 4e-/	.
4E-\ (4G\	4r	.
4BB-\ 4F\	2r	.
4GG\ 4E-\)	.	.
*	*clefF4	*clefF4
=241	=241	=241
4r	2.F\ (2.B-\	.
(4BB-/ 4D/	.	.
4EE-/)	.	.
4r	4E-\ 4G\)	.
=242	=242	=242
4r	2.F\ (2.B-\	.
(4BB-/ 4D/	.	.
4EE-/)	.	.
4r	4E-\ 4G\)	.
=243	=243	=243
4r	2.F\ (2.B-\	.
(4BB-/ 4D/	.	.
4EE-/)	.	.
4r	4E-\ 4G\)	.
=244	=244	=244
4r	2.D\ 2.F\ (2.B-\	.
(4BB-/	.	.
4BBB-/	.	.
4BB-/)	4F\ 4A-\ 4d\)	.
=245	=245	=245
1EE-	4G\ 4e-\	p
.	4r	.
.	2r	.
=246	=246	=246
1DD 1EE-	1r	.
*	*clefG2	*clefG2
=247	=247	=247
1CC 1EE-	(8e-/L	.
.	8f/	.
.	8e-/	.
.	8d/J	.
.	8e-/L	.
.	8f/	.
.	8g/	.
.	8a-/J	.
=248	=248	=248
1BBB- 1EE-	8b-\L	.
.	8cc\	.
.	8dd\	.
.	8ee-\J	.
.	8ff\L	.
.	8gg\	.
.	8aa-\	.
.	8bb-\J)	.
=249	=249	=249
*	*8va	*
1AAA- 1EE-	6ccc\	.
.	6ddd\	.
.	6eee-\	.
.	8fff\L	.
.	8ggg\	.
.	8aaa-\	.
.	8bbb-\J	.
=250	=250	=250
1GGG 1EE-	(2cccc\	pp
.	4bbb-\)	.
.	4r	.
=251	=251	=251
1EE-	8eee-\L	.
.	8fff\	.
.	8eee-\	.
.	8ddd\J	.
.	10eee-\L	.
.	10fff\	.
.	10ggg\	.
.	10aaa-\	.
.	10bbb-\J	.
=252	=252	=252
1GGG 1EE-	(2cccc\	pp
.	4bbb-\)	.
.	4r	.
=253	=253	=253
1AAA- 1EE-	8eee-\L	.
.	8fff\	.
.	8eee-\	.
.	8ddd\J	.
.	10eee-\L	.
.	10fff\	.
.	10ggg\	.
.	10aaa-\	.
.	10bbb-\J	.
=254	=254	=254
4GGG/ 4EE-/	1ccc (1cccc	.
4r	.	.
2r	.	.
=255	=255	=255
1r	4bb-\ 4bbb-\)	.
*	*X8va	*
.	4r	.
.	2r	.
*	*clefF4	*clefF4
=256	=256	=256
4BBB-/ 4DD/ 4FF/ 4BB-/	4F\ 4A-\ 4B-\ 4d\	f
4r	4r	.
2r	2r	.
=257	=257	=257
4EE-/ 4GG/ 4BB-/ 4E-/	4G\ 4B-\ 4e-\	.
4r	4r	.
2r	2r	.
==	==	==
*-	*-	*-
!!!ENC: Craig Stuart Sapp
!!!END: 2004/08/30/
!!!ONB: Not proof-read yet
!!!EEV: 2014/07/13/ (added ottavas)
